Yaru++/apps/scalable/sopcast-player.svg

<svg enable-background="new" height="256" viewBox="0 0 256 256" width="256" xmlns="http://www.w3.org/2000/svg" xmlns:xlink="http://www.w3.org/1999/xlink">
  <linearGradient id="linearGradient4358" gradientTransform="matrix(0 -1 1 0 -10.0054 585.9946)" gradientUnits="userSpaceOnUse" x1="88" x2="488" y1="88" y2="488">
    <stop offset="0" stop-opacity=".588235"/>
    <stop offset=".88" stop-opacity="0"/>
    <stop offset="1"/>
  </linearGradient>
  <filter id="filter4380" color-interpolation-filters="sRGB" height="1.088" width="1.106" x="-.05" y="-.04">
    <feGaussianBlur stdDeviation="8.48"/>
  </filter>
  <filter id="filter4346" color-interpolation-filters="sRGB" height="1.022" width="1.026" x="-.01" y="-.01">
    <feGaussianBlur stdDeviation="2.12"/>
  </filter>
  <path d="m189.84323 74c-70.59344 0-78.18921 7.250835-77.84323 77.98706v146.01294 146.01294c-.34598 70.73623 7.24979 77.98706 77.84323 77.98706h196.31354c70.59344 0 76.00668-7.27384 77.84323-77.98706v-146.01294-146.01294c0-70.737067-7.24979-77.98706-77.84323-77.98706z" filter="url(#filter4346)" opacity=".1" transform="matrix(0 .5 -.5 0 276.82523 -15.328148)"/>
  <path d="m189.84323 74c-70.59344 0-78.18921 7.250835-77.84323 77.98706v146.01294 146.01294c-.34598 70.73623 7.24979 77.98706 77.84323 77.98706h196.31354c70.59344 0 77.84323-7.24999 77.84323-77.98706v-146.01294-146.01294c0-70.737067-7.24979-77.98706-77.84323-77.98706z" fill="url(#linearGradient4358)" filter="url(#filter4380)" opacity=".3" transform="matrix(0 .5 -.5 0 276.82523 -15.328148)"/>
  <path d="m241.83043 77.478254c0-36.098811-3.69016-39.983003-39.68984-39.806081h-74.31016-74.310154c-35.99969-.176922-39.68984 3.70727-39.68984 39.806081v100.387326c0 36.09881 3.68973 39.80608 39.68984 39.80608h74.310154 74.31016c36.00011 0 39.68984-3.70727 39.68984-39.80608z" opacity=".1"/>
  <path d="m239.82523 176.74484c0 35.29673-3.62542 39.09461-38.99353 38.92162h-73.00647-73.006464c-35.36812.17299-38.99353-3.62489-38.99353-38.92162v-98.156766c0-35.296716 3.625-38.921616 38.99353-38.921616h73.006464 73.00647c35.36853 0 38.99353 3.6249 38.99353 38.921616z" fill="#343434"/>
  <path d="m54.81817 39.667201c-35.36853 0-38.992187 3.623202-38.992187 38.919923v98.158206c0 .0882.0019.16224.002.25v-96.410156c-.000047-35.29672 3.625564-38.921879 38.994094-38.921879h73.005853 73.00586c35.28016 0 38.97394 3.621035 38.99219 38.671879v-1.74805c0-35.296721-3.62561-38.919923-38.99414-38.919923h-73.00586z" fill="#fff" opacity=".3"/>
  <path d="m15.825983 174.74533v2c0 35.29673 3.624067 39.09487 38.992187 38.92188h73.00781 73.00586c35.36811.17299 38.99414-3.62515 38.99414-38.92188v-2c0 35.29673-3.62603 39.09487-38.99414 38.92188h-73.00586-73.00781c-35.36812.17299-38.992187-3.62515-38.992187-38.92188z" opacity=".2"/>
  <g enable-background="new" transform="matrix(3.9981649 0 0 3.9981649 -265.36432800551 -53.79349239069)">
    <path d="m107.34426 25.411493c-.85434 0-1.55995.706212-1.55995 1.560543 0 .330257.10709.636572.28589.890299l-7.229164 9.032883h-.83454l-7.191193-8.949844c.145888-.236962.234883-.512321.234883-.807853 0-.854342-.70621-1.55995-1.560542-1.55995-.854336 0-1.560545.705613-1.560545 1.55995 0 .854339.706206 1.560544 1.560545 1.560544.0881 0 .174267-.0093.258607-.02373l6.602801 8.22088h-14.769113c-1.736506 0-3.248611 1.424978-3.248611 3.201159v21.065853c0 1.776181 1.512105 3.19879 3.248611 3.19879h33.520551c1.73651 0 3.2492-1.422609 3.2492-3.19879v-21.065849c0-1.776181-1.51269-3.20116-3.2492-3.20116h-14.60541l6.69593-8.370349c.05.005.10005.0072.15125.0072.85432 0 1.56054-.705588 1.56054-1.55995 0-.854363-.70622-1.560542-1.56054-1.560542zm4.31566 14.920361-.0705 20.521948-8.00675-.01898c-.71009-2.354543-1.78601-4.541296-3.42715-5.80859-.467464-.02529-.964804-.03797-1.484034-.0427-1.55768-.01422-3.308909.0427-5.016157.0427-1.777982 1.177355-2.938698 3.379356-3.711257 5.775373l-8.034634-.01898v-20.309011zm3.41113.123372c1.11788 0 2.03387.915715 2.03387 2.033866 0 1.118157-.916 2.035053-2.03387 2.035053s-2.03208-.916896-2.03208-2.035053c0-1.118151.91421-2.033866 2.03208-2.033866zm-18.322004 1.434801a6.244981 6.244981 0 0 0 -6.244547 6.245138 6.244981 6.244981 0 0 0 6.244547 6.245138 6.244981 6.244981 0 0 0 6.245144-6.245138 6.244981 6.244981 0 0 0 -6.245144-6.245138zm18.322004 3.514334c1.11788 0 2.03387.915718 2.03387 2.033869 0 1.118157-.916 2.035644-2.03387 2.035644s-2.03208-.917487-2.03208-2.035644c0-1.118151.91421-2.033869 2.03208-2.033869zm0 4.949729c1.11787 0 2.03387.915711 2.03387 2.033868 0 1.118148-.91599 2.035644-2.03387 2.035644-1.11787 0-2.03208-.917496-2.03208-2.035644 0-1.118157.91421-2.033868 2.03208-2.033868z" fill="#faf8f6" fill-rule="evenodd"/>
    <rect fill="none" height="16.785" rx="1.326" width="24.444" x="85.86" y="38.18"/>
    <g fill-rule="evenodd" transform="matrix(.25011475 0 0 .25011475 66.371531 13.454545)">
      <path d="m169.9668 53.044922c-.48684 2.948711-3.07516 5.238281-6.15039 5.238281-.20471 0-.40556-.009306-.60547-.029297l-26.77149 33.464844h1.59961l25.17188-31.464844c.19991.019991.40076.029297.60547.029297 3.41571 0 6.23828-2.822401 6.23828-6.238281 0-.340886-.03387-.673132-.08789-1zm-12.30078.011719c-.05273.323145-.0879.651481-.0879.988281 0 .839423.19027 1.63261.5 2.365234l.64454-.804687c-.52824-.749591-.89857-1.615846-1.05664-2.548828zm-59.087895.640625c-.137903.806065-.431371 1.564072-.847656 2.240234l.589843.734375c.216377-.61951.34961-1.276093.34961-1.964844 0-.344288-.036712-.679839-.091797-1.009765zm-12.298828.009765c-.054021.326819-.087891.659125-.087891 1 0 3.415788 2.822493 6.238281 6.238282 6.238281.352238 0 .697951-.036056 1.035156-.09375l24.792966 30.867188h1.60547l-26.398436-32.867188c-.337205.057694-.682918.09375-1.035156.09375-3.074913.000001-5.663089-2.289784-6.150391-5.238281zm94.791013 51.751949-118.947263.56836v2l118.939453-.56836zm13.63867.49414c-4.46942 0-8.125 3.66031-8.125 8.13086 0 .33957.02743.67293.06836 1.00196.49708-4.0031 3.92603-7.13282 8.05664-7.13282 4.13057 0 7.5644 3.12984 8.0625 7.13282.04103-.3291.06836-.66231.06836-1.00196 0-4.47055-3.66139-8.13086-8.13086-8.13086zm0 19.78711c-4.46942 0-8.125 3.66226-8.125 8.13282 0 .33904.02756.67143.06836 1 .49727-4.0029 3.92617-7.13282 8.05664-7.13282 4.13043 0 7.56422 3.13003 8.0625 7.13282.04091-.32864.06836-.66088.06836-1 0-4.47056-3.66139-8.13282-8.13086-8.13282zm-98.179683 11.75391a24.968464 24.968464 0 0 0 -.041016 1.16406 24.968464 24.968464 0 0 0 24.966799 24.96875 24.968464 24.968464 0 0 0 24.96875-24.96875 24.968464 24.968464 0 0 0 -.04102-.82617 24.968464 24.968464 0 0 1 -24.92773 23.79492 24.968464 24.968464 0 0 1 -24.925783-24.13281zm98.179683 8.03711c-4.46942 0-8.125 3.66028-8.125 8.13086 0 .33904.02756.67144.06836 1 .49727-4.00291 3.92617-7.13086 8.05664-7.13086 4.1304 0 7.56421 3.12806 8.0625 7.13086.04091-.32864.06836-.66088.06836-1 0-4.47058-3.66143-8.13086-8.13086-8.13086zm-146.882808 43.21289v2c0 7.10147 6.045444 12.78906 12.988281 12.78906h134.019527c6.94286 0 12.99219-5.68759 12.99219-12.78906v-2c0 7.10147-6.04933 12.78906-12.99219 12.78906h-134.019527c-6.942837 0-12.988281-5.68759-12.988281-12.78906z" fill="#080808" opacity=".2"/>
      <path d="m163.81641 47.806641c-3.4158 0-6.23829 2.822525-6.23829 6.238281 0 .344737.03204.682069.0879 1.011719.48197-2.954133 3.0714-5.25 6.15039-5.25 3.07484 0 5.66308 2.289731 6.15039 5.238281.0539-.326467.08789-.659509.08789-1 0-3.415884-2.82257-6.238281-6.23828-6.238281zm-71.386722.664062c-3.415777 0-6.238282 2.820548-6.238282 6.236328 0 .340876.03387.673138.087891 1 .487303-2.948108 3.075489-5.236328 6.150391-5.236328 3.071475 0 5.657004 2.283184 6.148437 5.226563.055322-.323364.091797-.651938.091797-.990235 0-3.4158-2.824474-6.236328-6.240234-6.236328zm65.648432 9.939453-28.25976 35.308594h-3.33594l-28.162108-35.046875c-.154827.44329-.346558.870462-.589843 1.265625l28.751951 35.78125h3.33594l28.9043-36.113281c-.26041-.369538-.46705-.775511-.64454-1.195313zm-97.263667 35.308594c-6.942837 0-12.988281 5.697364-12.988281 12.79883v2c0-7.10147 6.045444-12.79883 12.988281-12.79883h59.048827l-1.60547-2zm77.224607 0-1.59961 2h58.39453c6.94286 0 12.99219 5.69736 12.99219 12.79883v-2c0-7.101466-6.04933-12.79883-12.99219-12.79883zm43.02344 15.74023-.27344 80.05079-32.01367-.07618c-2.83906-9.41385-7.13962-18.1558-13.70117-23.22265-1.869-.10112-3.85763-.15297-5.9336-.17188-6.22786-.05685-13.22882.17188-20.05468.17188-7.10867 4.70726-11.751028 13.51017-14.839846 23.08984l-32.123047-.07617v2l32.123047.07617c3.088818-9.57967 7.731176-18.38258 14.839846-23.08984 6.82586 0 13.82682-.22873 20.05468-.17188 2.07597.01891 4.0646.07076 5.9336.17188 6.56155 5.06685 10.86211 13.8088 13.70117 23.22265l32.01367.07618.28125-82.05079zm-59.60742 4.23047a24.968464 24.968464 0 0 0 -24.966799 24.96875 24.968464 24.968464 0 0 0 .041016.83594 24.968464 24.968464 0 0 1 24.925783-23.80469 24.968464 24.968464 0 0 1 24.92773 24.14258 24.968464 24.968464 0 0 0 .04102-1.17383 24.968464 24.968464 0 0 0 -24.96875-24.96875zm65.19726 3.39649c-.04077.32835-.06836.65914-.06836.99804 0 4.47058 3.65558 8.13672 8.125 8.13672 4.46943 0 8.13086-3.66614 8.13086-8.13672 0-.33898-.02749-.66961-.06836-.99804-.49897 4.00269-3.93262 7.13476-8.0625 7.13476-4.12995 0-7.5587-3.13196-8.05664-7.13476zm0 19.78711c-.0408.32849-.06836.66095-.06836 1 0 4.47057 3.65558 8.13867 8.125 8.13867 4.46943 0 8.13086-3.6681 8.13086-8.13867 0-.33913-.02745-.67144-.06836-1-.49829 4.00372-3.9321 7.13867-8.0625 7.13867-4.13047 0-7.55937-3.13484-8.05664-7.13867zm0 19.78906c-.0408.32849-.06836.66095-.06836 1 0 4.47054 3.65558 8.13867 8.125 8.13867 4.46947 0 8.13086-3.66813 8.13086-8.13867 0-.33913-.02745-.67144-.06836-1-.49828 4.0037-3.93207 7.13867-8.0625 7.13867-4.13047 0-7.55937-3.13486-8.05664-7.13867z" fill="#fff" opacity=".3"/>
    </g>
  </g>
</svg>

<svg xmlns="http://www.w3.org/2000/svg" xmlns:xlink="http://www.w3.org/1999/xlink" style="enable-background:new" width="256" height="256" version="1.0" viewBox="0 0 256 256">
 <title id="title4162">
  Adwaita Icon Template
 </title>
 <defs>
  <linearGradient id="linearGradient965" x1="48" x2="464" y1="44" y2="44" gradientUnits="userSpaceOnUse">
   <stop id="stop989" offset="0" style="stop-color:#77767b"/>
   <stop id="stop991" offset=".05" style="stop-color:#c0bfbc"/>
   <stop id="stop993" offset=".1" style="stop-color:#9a9996"/>
   <stop id="stop995" offset=".9" style="stop-color:#9a9996"/>
   <stop id="stop997" offset=".95" style="stop-color:#c0bfbc"/>
   <stop id="stop999" offset="1" style="stop-color:#77767b"/>
  </linearGradient>
  <radialGradient id="radialGradient1030" cx="64" cy="194.19" r="44" gradientTransform="matrix(-4.7273,7.9359e-7,-3.0301e-7,-1.6364,238.55,49.766)" gradientUnits="userSpaceOnUse">
   <stop id="stop1016" offset="0" style="stop-color:#fff"/>
   <stop id="stop1018" offset="1" style="stop-color:#fff;stop-opacity:.094118"/>
  </radialGradient>
  <linearGradient id="linearGradient1950" x1="70.347" x2="70.347" y1="245.4" y2="269.14" gradientUnits="userSpaceOnUse">
   <stop id="stop1944" offset="0" style="stop-color:#2d2839"/>
   <stop id="stop1946" offset="1" style="stop-color:#282433"/>
  </linearGradient>
  <linearGradient id="linearGradient4358" x1="88" x2="488" y1="88" y2="488" gradientTransform="rotate(-90,287.9946,298)" gradientUnits="userSpaceOnUse" xlink:href="#linearGradient4360"/>
  <linearGradient id="linearGradient4360">
   <stop id="stop4362" offset="0" style="stop-color:#000000;stop-opacity:0.58823532"/>
   <stop style="stop-color:#000000;stop-opacity:0" id="stop4364" offset=".88"/>
   <stop id="stop4366" offset="1" style="stop-color:#000000"/>
  </linearGradient>
  <filter style="color-interpolation-filters:sRGB" id="filter4380" width="1.106" height="1.088" x="-.05" y="-.04">
   <feGaussianBlur id="feGaussianBlur4382" stdDeviation="8.48"/>
  </filter>
  <filter style="color-interpolation-filters:sRGB" id="filter4346" width="1.026" height="1.022" x="-.01" y="-.01">
   <feGaussianBlur id="feGaussianBlur4348" stdDeviation="2.12"/>
  </filter>
 </defs>
 <path style="opacity:0.1;filter:url(#filter4346)" d="M 189.84323,74 C 119.24979,74 111.65402,81.250835 112,151.98706 V 298 444.01294 C 111.65402,514.74917 119.24979,522 189.84323,522 H 386.15677 C 456.75021,522 462.16345,514.72616 464,444.01294 V 298 151.98706 C 464,81.249993 456.75021,74 386.15677,74 Z" transform="matrix(0,0.5,-0.5,0,276.82523,-15.328148)"/>
 <path style="opacity:0.3;fill:url(#linearGradient4358);filter:url(#filter4380)" d="M 189.84323,74 C 119.24979,74 111.65402,81.250835 112,151.98706 V 298 444.01294 C 111.65402,514.74917 119.24979,522 189.84323,522 H 386.15677 C 456.75021,522 464,514.75001 464,444.01294 V 298 151.98706 C 464,81.249993 456.75021,74 386.15677,74 Z" transform="matrix(0,0.5,-0.5,0,276.82523,-15.328148)"/>
 <path style="opacity:0.1" d="m 241.83043,77.478254 c 0,-36.098811 -3.69016,-39.983003 -39.68984,-39.806081 H 127.83043 53.520276 c -35.99969,-0.176922 -39.68984,3.70727 -39.68984,39.806081 V 177.86558 c 0,36.09881 3.68973,39.80608 39.68984,39.80608 h 74.310154 74.31016 c 36.00011,0 39.68984,-3.70727 39.68984,-39.80608 z"/>
 <path style="fill:#343434" d="m 239.82523,176.74484 c 0,35.29673 -3.62542,39.09461 -38.99353,38.92162 H 127.82523 54.818766 c -35.36812,0.17299 -38.99353,-3.62489 -38.99353,-38.92162 V 78.588074 c 0,-35.296716 3.625,-38.921616 38.99353,-38.921616 h 73.006464 73.00647 c 35.36853,0 38.99353,3.6249 38.99353,38.921616 z"/>
 <path style="opacity:0.3;fill:#ffffff" d="m 54.81817,39.667201 c -35.36853,0 -38.992187,3.623202 -38.992187,38.919923 v 98.158206 c 0,0.0882 0.0019,0.16224 0.002,0.25 V 80.585174 c -4.7e-5,-35.29672 3.625564,-38.921879 38.994094,-38.921879 h 73.005853 73.00586 c 35.28016,0 38.97394,3.621035 38.99219,38.671879 v -1.74805 c 0,-35.296721 -3.62561,-38.919923 -38.99414,-38.919923 h -73.00586 z"/>
 <path style="opacity:0.2" d="m 15.825983,174.74533 v 2 c 0,35.29673 3.624067,39.09487 38.992187,38.92188 h 73.00781 73.00586 c 35.36811,0.17299 38.99414,-3.62515 38.99414,-38.92188 v -2 c 0,35.29673 -3.62603,39.09487 -38.99414,38.92188 H 127.82598 54.81817 C 19.45005,213.8402 15.825983,210.04206 15.825983,174.74533 Z"/>
 <g style="enable-background:new" id="layer1" transform="translate(-164.25137,-138.58234)">
  <g id="layer9">
   <g style="enable-background:new" transform="translate(162.99495,34.62058)">
    <g style="enable-background:new" transform="matrix(3.9981649,0,0,3.9981649,-264.10792,42.66827)">
     <g transform="translate(3.2285214e-6,1.8758603)">
      <path style="fill:#faf8f6;fill-rule:evenodd" d="m 107.34426,25.411493 c -0.85434,0 -1.55995,0.706212 -1.55995,1.560543 0,0.330257 0.10709,0.636572 0.28589,0.890299 l -7.229164,9.032883 h -0.83454 l -7.191193,-8.949844 c 0.145888,-0.236962 0.234883,-0.512321 0.234883,-0.807853 0,-0.854342 -0.70621,-1.55995 -1.560542,-1.55995 -0.854336,0 -1.560545,0.705613 -1.560545,1.55995 0,0.854339 0.706206,1.560544 1.560545,1.560544 0.0881,0 0.174267,-0.0093 0.258607,-0.02373 l 6.602801,8.22088 H 81.581939 c -1.736506,0 -3.248611,1.424978 -3.248611,3.201159 v 21.065853 c 0,1.776181 1.512105,3.19879 3.248611,3.19879 h 33.520551 c 1.73651,0 3.2492,-1.422609 3.2492,-3.19879 V 40.096378 c 0,-1.776181 -1.51269,-3.20116 -3.2492,-3.20116 h -14.60541 l 6.69593,-8.370349 c 0.05,0.005 0.10005,0.0072 0.15125,0.0072 0.85432,0 1.56054,-0.705588 1.56054,-1.55995 0,-0.854363 -0.70622,-1.560542 -1.56054,-1.560542 z m 4.31566,14.920361 -0.0705,20.521948 -8.00675,-0.01898 c -0.71009,-2.354543 -1.78601,-4.541296 -3.42715,-5.80859 -0.467464,-0.02529 -0.964804,-0.03797 -1.484034,-0.0427 -1.55768,-0.01422 -3.308909,0.0427 -5.016157,0.0427 -1.777982,1.177355 -2.938698,3.379356 -3.711257,5.775373 l -8.034634,-0.01898 V 40.473614 Z m 3.41113,0.123372 c 1.11788,0 2.03387,0.915715 2.03387,2.033866 0,1.118157 -0.916,2.035053 -2.03387,2.035053 -1.11787,0 -2.03208,-0.916896 -2.03208,-2.035053 0,-1.118151 0.91421,-2.033866 2.03208,-2.033866 z m -18.322004,1.434801 a 6.244981,6.244981 0 0 0 -6.244547,6.245138 6.244981,6.244981 0 0 0 6.244547,6.245138 6.244981,6.244981 0 0 0 6.245144,-6.245138 6.244981,6.244981 0 0 0 -6.245144,-6.245138 z m 18.322004,3.514334 c 1.11788,0 2.03387,0.915718 2.03387,2.033869 0,1.118157 -0.916,2.035644 -2.03387,2.035644 -1.11787,0 -2.03208,-0.917487 -2.03208,-2.035644 0,-1.118151 0.91421,-2.033869 2.03208,-2.033869 z m 0,4.949729 c 1.11787,0 2.03387,0.915711 2.03387,2.033868 0,1.118148 -0.91599,2.035644 -2.03387,2.035644 -1.11787,0 -2.03208,-0.917496 -2.03208,-2.035644 0,-1.118157 0.91421,-2.033868 2.03208,-2.033868 z"/>
      <rect style="fill:none" width="24.444" height="16.785" x="85.86" y="38.18" rx="1.326" ry="1.326"/>
      <path style="fill:#080808;fill-rule:evenodd;opacity:0.2" d="M 169.9668 53.044922 C 169.47996 55.993633 166.89164 58.283203 163.81641 58.283203 C 163.6117 58.283203 163.41085 58.273897 163.21094 58.253906 L 136.43945 91.71875 L 138.03906 91.71875 L 163.21094 60.253906 C 163.41085 60.273897 163.6117 60.283203 163.81641 60.283203 C 167.23212 60.283203 170.05469 57.460802 170.05469 54.044922 C 170.05469 53.704036 170.02082 53.37179 169.9668 53.044922 z M 157.66602 53.056641 C 157.61329 53.379786 157.57812 53.708122 157.57812 54.044922 C 157.57812 54.884345 157.76839 55.677532 158.07812 56.410156 L 158.72266 55.605469 C 158.19442 54.855878 157.82409 53.989623 157.66602 53.056641 z M 98.578125 53.697266 C 98.440222 54.503331 98.146754 55.261338 97.730469 55.9375 L 98.320312 56.671875 C 98.536689 56.052365 98.669922 55.395782 98.669922 54.707031 C 98.669922 54.362743 98.63321 54.027192 98.578125 53.697266 z M 86.279297 53.707031 C 86.225276 54.03385 86.191406 54.366156 86.191406 54.707031 C 86.191406 58.122819 89.013899 60.945312 92.429688 60.945312 C 92.781926 60.945312 93.127639 60.909256 93.464844 60.851562 L 118.25781 91.71875 L 119.86328 91.71875 L 93.464844 58.851562 C 93.127639 58.909256 92.781926 58.945312 92.429688 58.945312 C 89.354775 58.945313 86.766599 56.655528 86.279297 53.707031 z M 181.07031 105.45898 L 62.123047 106.02734 L 62.123047 108.02734 L 181.0625 107.45898 L 181.07031 105.45898 z M 194.70898 105.95312 C 190.23956 105.95312 186.58398 109.61343 186.58398 114.08398 C 186.58398 114.42355 186.61141 114.75691 186.65234 115.08594 C 187.14942 111.08284 190.57837 107.95312 194.70898 107.95312 C 198.83955 107.95312 202.27338 111.08296 202.77148 115.08594 C 202.81251 114.75684 202.83984 114.42363 202.83984 114.08398 C 202.83984 109.61343 199.17845 105.95312 194.70898 105.95312 z M 194.70898 125.74023 C 190.23956 125.74023 186.58398 129.40249 186.58398 133.87305 C 186.58398 134.21209 186.61154 134.54448 186.65234 134.87305 C 187.14961 130.87015 190.57851 127.74023 194.70898 127.74023 C 198.83941 127.74023 202.2732 130.87026 202.77148 134.87305 C 202.81239 134.54441 202.83984 134.21217 202.83984 133.87305 C 202.83984 129.40249 199.17845 125.74023 194.70898 125.74023 z M 96.529297 137.49414 A 24.968464 24.968464 0 0 0 96.488281 138.6582 A 24.968464 24.968464 0 0 0 121.45508 163.62695 A 24.968464 24.968464 0 0 0 146.42383 138.6582 A 24.968464 24.968464 0 0 0 146.38281 137.83203 A 24.968464 24.968464 0 0 1 121.45508 161.62695 A 24.968464 24.968464 0 0 1 96.529297 137.49414 z M 194.70898 145.53125 C 190.23956 145.53125 186.58398 149.19153 186.58398 153.66211 C 186.58398 154.00115 186.61154 154.33355 186.65234 154.66211 C 187.14961 150.6592 190.57851 147.53125 194.70898 147.53125 C 198.83938 147.53125 202.27319 150.65931 202.77148 154.66211 C 202.81239 154.33347 202.83984 154.00123 202.83984 153.66211 C 202.83984 149.19153 199.17841 145.53125 194.70898 145.53125 z M 47.826172 188.74414 L 47.826172 190.74414 C 47.826172 197.84561 53.871616 203.5332 60.814453 203.5332 L 194.83398 203.5332 C 201.77684 203.5332 207.82617 197.84561 207.82617 190.74414 L 207.82617 188.74414 C 207.82617 195.84561 201.77684 201.5332 194.83398 201.5332 L 60.814453 201.5332 C 53.871616 201.5332 47.826172 195.84561 47.826172 188.74414 z" transform="matrix(0.25011475,0,0,0.25011475,66.371531,13.454545)"/>
      <path style="fill:#ffffff;fill-rule:evenodd;opacity:0.3" d="M 163.81641 47.806641 C 160.40061 47.806641 157.57812 50.629166 157.57812 54.044922 C 157.57812 54.389659 157.61016 54.726991 157.66602 55.056641 C 158.14799 52.102508 160.73742 49.806641 163.81641 49.806641 C 166.89125 49.806641 169.47949 52.096372 169.9668 55.044922 C 170.0207 54.718455 170.05469 54.385413 170.05469 54.044922 C 170.05469 50.629038 167.23212 47.806641 163.81641 47.806641 z M 92.429688 48.470703 C 89.013911 48.470703 86.191406 51.291251 86.191406 54.707031 C 86.191406 55.047907 86.225276 55.380169 86.279297 55.707031 C 86.7666 52.758923 89.354786 50.470703 92.429688 50.470703 C 95.501163 50.470703 98.086692 52.753887 98.578125 55.697266 C 98.633447 55.373902 98.669922 55.045328 98.669922 54.707031 C 98.669922 51.291231 95.845448 48.470703 92.429688 48.470703 z M 158.07812 58.410156 L 129.81836 93.71875 L 126.48242 93.71875 L 98.320312 58.671875 C 98.165485 59.115165 97.973754 59.542337 97.730469 59.9375 L 126.48242 95.71875 L 129.81836 95.71875 L 158.72266 59.605469 C 158.46225 59.235931 158.25561 58.829958 158.07812 58.410156 z M 60.814453 93.71875 C 53.871616 93.71875 47.826172 99.416114 47.826172 106.51758 L 47.826172 108.51758 C 47.826172 101.41611 53.871616 95.71875 60.814453 95.71875 L 119.86328 95.71875 L 118.25781 93.71875 L 60.814453 93.71875 z M 138.03906 93.71875 L 136.43945 95.71875 L 194.83398 95.71875 C 201.77684 95.71875 207.82617 101.41611 207.82617 108.51758 L 207.82617 106.51758 C 207.82617 99.416114 201.77684 93.71875 194.83398 93.71875 L 138.03906 93.71875 z M 181.0625 109.45898 L 180.78906 189.50977 L 148.77539 189.43359 C 145.93633 180.01974 141.63577 171.27779 135.07422 166.21094 C 133.20522 166.10982 131.21659 166.05797 129.14062 166.03906 C 122.91276 165.98221 115.9118 166.21094 109.08594 166.21094 C 101.97727 170.9182 97.334912 179.72111 94.246094 189.30078 L 62.123047 189.22461 L 62.123047 191.22461 L 94.246094 191.30078 C 97.334912 181.72111 101.97727 172.9182 109.08594 168.21094 C 115.9118 168.21094 122.91276 167.98221 129.14062 168.03906 C 131.21659 168.05797 133.20522 168.10982 135.07422 168.21094 C 141.63577 173.27779 145.93633 182.01974 148.77539 191.43359 L 180.78906 191.50977 L 181.07031 109.45898 L 181.0625 109.45898 z M 121.45508 113.68945 A 24.968464 24.968464 0 0 0 96.488281 138.6582 A 24.968464 24.968464 0 0 0 96.529297 139.49414 A 24.968464 24.968464 0 0 1 121.45508 115.68945 A 24.968464 24.968464 0 0 1 146.38281 139.83203 A 24.968464 24.968464 0 0 0 146.42383 138.6582 A 24.968464 24.968464 0 0 0 121.45508 113.68945 z M 186.65234 117.08594 C 186.61157 117.41429 186.58398 117.74508 186.58398 118.08398 C 186.58398 122.55456 190.23956 126.2207 194.70898 126.2207 C 199.17841 126.2207 202.83984 122.55456 202.83984 118.08398 C 202.83984 117.745 202.81235 117.41437 202.77148 117.08594 C 202.27251 121.08863 198.83886 124.2207 194.70898 124.2207 C 190.57903 124.2207 187.15028 121.08874 186.65234 117.08594 z M 186.65234 136.87305 C 186.61154 137.20154 186.58398 137.534 186.58398 137.87305 C 186.58398 142.34362 190.23956 146.01172 194.70898 146.01172 C 199.17841 146.01172 202.83984 142.34362 202.83984 137.87305 C 202.83984 137.53392 202.81239 137.20161 202.77148 136.87305 C 202.27319 140.87677 198.83938 144.01172 194.70898 144.01172 C 190.57851 144.01172 187.14961 140.87688 186.65234 136.87305 z M 186.65234 156.66211 C 186.61154 156.9906 186.58398 157.32306 186.58398 157.66211 C 186.58398 162.13265 190.23956 165.80078 194.70898 165.80078 C 199.17845 165.80078 202.83984 162.13265 202.83984 157.66211 C 202.83984 157.32298 202.81239 156.99067 202.77148 156.66211 C 202.2732 160.66581 198.83941 163.80078 194.70898 163.80078 C 190.57851 163.80078 187.14961 160.66592 186.65234 156.66211 z" transform="matrix(0.25011475,0,0,0.25011475,66.371531,13.454545)"/>
     </g>
    </g>
   </g>
  </g>
 </g>
</svg>
